lib/brands/icons/wikipedia.svg

<svg xmlns="http://www.w3.org/2000/svg" fill="none" aria-hidden="true" viewBox="0 0 48 48"><g id="wikipedia-Icon"><g id="Wikipedia icon"><path id="V (Left)" fill="black" d="M32.8825 12.2797V12.9378C32.0142 13.092 31.3572 13.3649 30.9111 13.756C30.272 14.3372 29.5188 15.2264 29.0243 16.4243L18.9674 36.951H18.2982L8.20186 16.1575C7.73171 15.0901 7.09232 14.4378 6.8994 14.2009C6.59817 13.8332 6.2274 13.5455 5.7874 13.3381C5.34709 13.1304 4.75324 12.9972 4.00586 12.9378V12.2797H13.8299V12.9378C12.6966 13.0446 12.1563 13.2344 11.8185 13.507C11.4809 13.7797 11.3123 14.1295 11.3123 14.5566C11.3123 15.1495 11.5896 16.0744 12.144 17.3314L19.6003 31.4726L26.8902 17.5092C27.4569 16.1338 27.9271 15.179 27.9271 14.6455C27.9271 14.3015 27.7523 13.9726 27.4025 13.6581C27.0529 13.344 26.6572 13.1215 25.8256 12.991C25.7652 12.9794 25.6628 12.9615 25.5179 12.9378V12.2797H32.8825V12.2797Z"/><path id="V (Right)" fill="black" d="M43.7272 12.2797V12.9378C42.8589 13.092 42.202 13.3649 41.7558 13.756C41.1167 14.3372 40.3635 15.2264 39.869 16.4243L29.8121 36.951H29.1429L19.0466 16.1575C18.5764 15.0901 17.937 14.4378 17.7441 14.2009C17.4429 13.8332 17.0721 13.5455 16.6321 13.3381C16.1918 13.1304 15.598 12.9972 14.8506 12.9378V12.2797H24.6746V12.9378C23.5414 13.0446 23.001 13.2344 22.6632 13.507C22.3257 13.7797 22.157 14.1295 22.157 14.5566C22.157 15.1495 22.4343 16.0744 22.9887 17.3314L30.445 31.4726L37.7349 17.5092C38.3017 16.1338 38.7718 15.179 38.7718 14.6455C38.7718 14.3015 38.597 13.9726 38.2472 13.6581C37.8977 13.344 37.502 13.1215 36.6703 12.991C36.61 12.9794 36.5075 12.9615 36.3626 12.9378V12.2797H43.7272V12.2797Z"/></g></g></svg>

<svg xmlns="http://www.w3.org/2000/svg" fill="none" aria-hidden="true" viewBox="0 0 48 48"><g fill="#000"><path d="M32.883 12.28v.658c-.869.154-1.526.427-1.972.818a7.53 7.53 0 0 0-1.887 2.668L18.967 36.951h-.669L8.202 16.157c-.47-1.067-1.11-1.72-1.303-1.956a3.158 3.158 0 0 0-1.112-.863c-.44-.208-1.034-.34-1.781-.4v-.658h9.824v.658c-1.133.107-1.674.296-2.011.569a1.29 1.29 0 0 0-.507 1.05c0 .592.278 1.517.832 2.774L19.6 31.473l7.29-13.964c.567-1.375 1.037-2.33 1.037-2.864 0-.343-.175-.672-.524-.987-.35-.314-.746-.537-1.577-.667a8.725 8.725 0 0 0-.308-.053v-.658h7.364Z"/><path d="M43.727 12.28v.658c-.868.154-1.525.427-1.971.818a7.53 7.53 0 0 0-1.887 2.668L29.812 36.951h-.67L19.048 16.157c-.47-1.067-1.11-1.72-1.303-1.956a3.158 3.158 0 0 0-1.112-.863c-.44-.208-1.034-.34-1.781-.4v-.658h9.824v.658c-1.134.107-1.674.296-2.012.569a1.29 1.29 0 0 0-.506 1.05c0 .592.277 1.517.832 2.774l7.456 14.142 7.29-13.964c.567-1.375 1.037-2.33 1.037-2.864 0-.343-.175-.672-.525-.987-.35-.314-.745-.537-1.577-.667a8.987 8.987 0 0 0-.307-.053v-.658h7.364Z"/></g></svg>
